X:791
T:Dixie
C:D. Emmett
S:Bruce & Emmett's Drummers and Fifers Guide (1862), p. 79
M:2/4
L:1/8
Q:1/4=100
K:G
%%MIDI program 72
%%MIDI transpose 8
%%MIDI ratio 3 1
d/B/|GG G/A/B/c/|dddB|ee e>d|e>d e/f/g/a/|b3 (g/d/)|
g3 (d/B/)|d3 (A/B/)|G2 z:|~d|gb a>g|eg2e|a3e|a3~d|
gb a>g|ef g>e|dB g>B|BA2B|G3B|A3d|
Bd b>g|ag3|G3B|A3e|dB b>g|a g2|:
[L:1/16]G2|DGBG dGBG|cGeG dGBG|DGBG dGBG|Afe^c d4|
DGBG dGBG|cGeG dGBG|A(ed)(F G)DBG|A(ed)F G2:|

